(MAILORGANIZER_ENDS)
(ENDS FOR MY MAIL ORGANIZER. T1 = 14 SINGLE FLUTE FLAT MILL. DESIGNED FOR 12 PLYWOOD.)
(T1  D=6.35 CR=0 - ZMIN=-15.7 - FLAT END MILL)
G0 G40 G90 G17
G21

(2D CONTOUR5)
T1 M6
M3 S12000
G0 X31.869 Y-8.85
G0 Z8
G0 Z7
G1 Z-2.058 F600.
G1 Y-8.843 Z-2.275
G1 Y-8.82 Z-2.491
G1 Y-8.784 Z-2.704
G1 Y-8.732 Z-2.915
G1 Y-8.667 Z-3.122
G1 Y-8.587 Z-3.323
G1 Y-8.494 Z-3.519
G1 Y-8.388 Z-3.708
G1 Y-8.269 Z-3.889
G1 Y-8.138 Z-4.062
G1 Y-7.995 Z-4.225
G1 Y-7.842 Z-4.379
G1 Y-7.679 Z-4.521
G1 Y-7.506 Z-4.652
G1 Y-7.325 Z-4.771
G1 Y-7.136 Z-4.877
G1 Y-6.94 Z-4.97
G1 Y-6.738 Z-5.05
G1 Y-6.532 Z-5.116
G1 Y-6.321 Z-5.167
G1 Y-6.107 Z-5.204
G1 Y-5.892 Z-5.226
G1 Y-5.675 Z-5.233
G1 Y-4.175 F800.
G2 X32.869 Y-3.175 I1 J0
G1 X444.5
G3 X447.675 Y0 I0 J3.175
G1 Y70.25
G3 X444.5 Y73.425 I-3.175 J0
G3 X442.255 Y72.495 I0 J-3.175
G1 X386.035 Y16.275
G1 X365.305
G1 X354.011 Y80.326
G3 X350.333 Y82.902 I-3.127 J-0.551
G3 X349.297 Y82.525 I0.551 J-3.127
G1 X234.549 Y16.275
G1 X206.105
G1 X194.811 Y80.326
G3 X191.133 Y82.902 I-3.127 J-0.551
G3 X190.096 Y82.525 I0.551 J-3.127
G1 X75.349 Y16.275
G1 X0
G3 X-3.175 Y13.1 I0 J-3.175
G1 Y0
G3 X0 Y-3.175 I3.175 J0
G1 X32.869
G1 X44.869
G2 X45.869 Y-4.175 I0 J-1
G1 Y-5.675
G1 Y-5.892 Z-5.226
G1 Y-6.107 Z-5.204
G1 Y-6.321 Z-5.167
G1 Y-6.532 Z-5.116
G1 Y-6.738 Z-5.05
G1 Y-6.94 Z-4.97
G1 Y-7.136 Z-4.877
G1 Y-7.325 Z-4.771
G1 Y-7.506 Z-4.652
G1 Y-7.679 Z-4.521
G1 Y-7.842 Z-4.379
G1 Y-7.995 Z-4.225
G1 Y-8.138 Z-4.062
G1 Y-8.269 Z-3.889
G1 Y-8.388 Z-3.708
G1 Y-8.494 Z-3.519
G1 Y-8.587 Z-3.323
G1 Y-8.667 Z-3.122
G1 Y-8.732 Z-2.915
G1 Y-8.784 Z-2.704
G1 Y-8.82 Z-2.491
G1 Y-8.843 Z-2.275
G1 Y-8.85 Z-2.058
G1 X31.869
G1 Z-7.292 F600.
G1 Y-8.843 Z-7.508
G1 Y-8.82 Z-7.724
G1 Y-8.784 Z-7.938
G1 Y-8.732 Z-8.148
G1 Y-8.667 Z-8.355
G1 Y-8.587 Z-8.557
G1 Y-8.494 Z-8.752
G1 Y-8.388 Z-8.941
G1 Y-8.269 Z-9.123
G1 Y-8.138 Z-9.295
G1 Y-7.995 Z-9.459
G1 Y-7.842 Z-9.612
G1 Y-7.679 Z-9.755
G1 Y-7.506 Z-9.886
G1 Y-7.325 Z-10.004
G1 Y-7.136 Z-10.111
G1 Y-6.94 Z-10.204
G1 Y-6.738 Z-10.283
G1 Y-6.532 Z-10.349
G1 Y-6.321 Z-10.4
G1 Y-6.107 Z-10.437
G1 Y-5.892 Z-10.459
G1 Y-5.675 Z-10.467
G1 Y-4.175 F800.
G2 X32.869 Y-3.175 I1 J0
G1 X444.5
G3 X447.675 Y0 I0 J3.175
G1 Y70.25
G3 X444.5 Y73.425 I-3.175 J0
G3 X442.255 Y72.495 I0 J-3.175
G1 X386.035 Y16.275
G1 X365.305
G1 X354.011 Y80.326
G3 X350.333 Y82.902 I-3.127 J-0.551
G3 X349.297 Y82.525 I0.551 J-3.127
G1 X234.549 Y16.275
G1 X206.105
G1 X194.811 Y80.326
G3 X191.133 Y82.902 I-3.127 J-0.551
G3 X190.096 Y82.525 I0.551 J-3.127
G1 X75.349 Y16.275
G1 X0
G3 X-3.175 Y13.1 I0 J-3.175
G1 Y0
G3 X0 Y-3.175 I3.175 J0
G1 X32.869
G1 X44.869
G2 X45.869 Y-4.175 I0 J-1
G1 Y-5.675
G1 Y-5.892 Z-10.459
G1 Y-6.107 Z-10.437
G1 Y-6.321 Z-10.4
G1 Y-6.532 Z-10.349
G1 Y-6.738 Z-10.283
G1 Y-6.94 Z-10.204
G1 Y-7.136 Z-10.111
G1 Y-7.325 Z-10.004
G1 Y-7.506 Z-9.886
G1 Y-7.679 Z-9.755
G1 Y-7.842 Z-9.612
G1 Y-7.995 Z-9.459
G1 Y-8.138 Z-9.295
G1 Y-8.269 Z-9.123
G1 Y-8.388 Z-8.941
G1 Y-8.494 Z-8.752
G1 Y-8.587 Z-8.557
G1 Y-8.667 Z-8.355
G1 Y-8.732 Z-8.148
G1 Y-8.784 Z-7.938
G1 Y-8.82 Z-7.724
G1 Y-8.843 Z-7.508
G1 Y-8.85 Z-7.292
G1 X31.869
G1 Z-12.525 F600.
G1 Y-8.843 Z-12.742
G1 Y-8.82 Z-12.957
G1 Y-8.784 Z-13.171
G1 Y-8.732 Z-13.382
G1 Y-8.667 Z-13.588
G1 Y-8.587 Z-13.79
G1 Y-8.494 Z-13.986
G1 Y-8.388 Z-14.175
G1 Y-8.269 Z-14.356
G1 Y-8.138 Z-14.529
G1 Y-7.995 Z-14.692
G1 Y-7.842 Z-14.845
G1 Y-7.679 Z-14.988
G1 Y-7.506 Z-15.119
G1 Y-7.325 Z-15.238
G1 Y-7.136 Z-15.344
G1 Y-6.94 Z-15.437
G1 Y-6.738 Z-15.517
G1 Y-6.532 Z-15.582
G1 Y-6.321 Z-15.634
G1 Y-6.107 Z-15.67
G1 Y-5.892 Z-15.693
G1 Y-5.675 Z-15.7
G1 Y-4.175 F800.
G2 X32.869 Y-3.175 I1 J0
G1 X73.876
G1 Z-11.7
G1 X90.226
G1 Z-15.7 F600.
G1 X369.265 F800.
G1 Z-11.7
G1 X385.615
G1 Z-15.7 F600.
G1 X444.5 F800.
G3 X447.675 Y0 I0 J3.175
G1 Y26.487
G1 Z-11.7
G1 Y42.837
G1 Z-15.7 F600.
G1 Y70.25 F800.
G3 X444.5 Y73.425 I-3.175 J0
G3 X442.255 Y72.495 I0 J-3.175
G1 X386.035 Y16.275
G1 X365.305
G1 X354.011 Y80.326
G3 X350.333 Y82.902 I-3.127 J-0.551
G3 X349.297 Y82.525 I0.551 J-3.127
G1 X234.549 Y16.275
G1 X206.105
G1 X194.811 Y80.326
G3 X191.133 Y82.902 I-3.127 J-0.551
G3 X190.096 Y82.525 I0.551 J-3.127
G1 X75.349 Y16.275
G1 X0
G3 X-3.175 Y13.1 I0 J-3.175
G1 Y0
G3 X0 Y-3.175 I3.175 J0
G1 X44.869
G2 X45.869 Y-4.175 I0 J-1
G1 Y-5.675
G1 Y-5.892 Z-15.693
G1 Y-6.107 Z-15.67
G1 Y-6.321 Z-15.634
G1 Y-6.532 Z-15.582
G1 Y-6.738 Z-15.517
G1 Y-6.94 Z-15.437
G1 Y-7.136 Z-15.344
G1 Y-7.325 Z-15.238
G1 Y-7.506 Z-15.119
G1 Y-7.679 Z-14.988
G1 Y-7.842 Z-14.845
G1 Y-7.995 Z-14.692
G1 Y-8.138 Z-14.529
G1 Y-8.269 Z-14.356
G1 Y-8.388 Z-14.175
G1 Y-8.494 Z-13.986
G1 Y-8.587 Z-13.79
G1 Y-8.667 Z-13.588
G1 Y-8.732 Z-13.382
G1 Y-8.784 Z-13.171
G1 Y-8.82 Z-12.957
G1 Y-8.843 Z-12.742
G1 Y-8.85 Z-12.525
G0 Z8

(2D CONTOUR6)
G0 X537.165 Y131.95
G0 Z8
G0 Z7
G1 Z-2.058 F600.
G1 Y131.943 Z-2.275
G1 Y131.92 Z-2.491
G1 Y131.884 Z-2.704
G1 Y131.832 Z-2.915
G1 Y131.767 Z-3.122
G1 Y131.687 Z-3.323
G1 Y131.594 Z-3.519
G1 Y131.488 Z-3.708
G1 Y131.369 Z-3.889
G1 Y131.238 Z-4.062
G1 Y131.095 Z-4.225
G1 Y130.942 Z-4.379
G1 Y130.779 Z-4.521
G1 Y130.606 Z-4.652
G1 Y130.425 Z-4.771
G1 Y130.236 Z-4.877
G1 Y130.04 Z-4.97
G1 Y129.838 Z-5.05
G1 Y129.632 Z-5.116
G1 Y129.421 Z-5.167
G1 Y129.207 Z-5.204
G1 Y128.992 Z-5.226
G1 Y128.775 Z-5.233
G1 Y127.275 F800.
G2 X536.165 Y126.275 I-1 J0
G1 X120
G3 X116.825 Y123.1 I0 J-3.175
G1 Y52.85
G3 X120 Y49.675 I3.175 J0
G3 X122.245 Y50.605 I0 J3.175
G1 X178.465 Y106.825
G1 X199.195
G1 X210.489 Y42.774
G3 X214.167 Y40.198 I3.127 J0.551
G3 X215.204 Y40.575 I-0.551 J3.127
G1 X329.951 Y106.825
G1 X358.395
G1 X369.689 Y42.774
G3 X373.367 Y40.198 I3.127 J0.551
G3 X374.404 Y40.575 I-0.551 J3.127
G1 X489.151 Y106.825
G1 X564.5
G3 X567.675 Y110 I0 J3.175
G1 Y123.1
G3 X564.5 Y126.275 I-3.175 J0
G1 X536.165
G1 X524.165
G2 X523.165 Y127.275 I0 J1
G1 Y128.775
G1 Y128.992 Z-5.226
G1 Y129.207 Z-5.204
G1 Y129.421 Z-5.167
G1 Y129.632 Z-5.116
G1 Y129.838 Z-5.05
G1 Y130.04 Z-4.97
G1 Y130.236 Z-4.877
G1 Y130.425 Z-4.771
G1 Y130.606 Z-4.652
G1 Y130.779 Z-4.521
G1 Y130.942 Z-4.379
G1 Y131.095 Z-4.225
G1 Y131.238 Z-4.062
G1 Y131.369 Z-3.889
G1 Y131.488 Z-3.708
G1 Y131.594 Z-3.519
G1 Y131.687 Z-3.323
G1 Y131.767 Z-3.122
G1 Y131.832 Z-2.915
G1 Y131.884 Z-2.704
G1 Y131.92 Z-2.491
G1 Y131.943 Z-2.275
G1 Y131.95 Z-2.058
G1 X537.165
G1 Z-7.292 F600.
G1 Y131.943 Z-7.508
G1 Y131.92 Z-7.724
G1 Y131.884 Z-7.938
G1 Y131.832 Z-8.148
G1 Y131.767 Z-8.355
G1 Y131.687 Z-8.557
G1 Y131.594 Z-8.752
G1 Y131.488 Z-8.941
G1 Y131.369 Z-9.123
G1 Y131.238 Z-9.295
G1 Y131.095 Z-9.459
G1 Y130.942 Z-9.612
G1 Y130.779 Z-9.755
G1 Y130.606 Z-9.886
G1 Y130.425 Z-10.004
G1 Y130.236 Z-10.111
G1 Y130.04 Z-10.204
G1 Y129.838 Z-10.283
G1 Y129.632 Z-10.349
G1 Y129.421 Z-10.4
G1 Y129.207 Z-10.437
G1 Y128.992 Z-10.459
G1 Y128.775 Z-10.467
G1 Y127.275 F800.
G2 X536.165 Y126.275 I-1 J0
G1 X120
G3 X116.825 Y123.1 I0 J-3.175
G1 Y52.85
G3 X120 Y49.675 I3.175 J0
G3 X122.245 Y50.605 I0 J3.175
G1 X178.465 Y106.825
G1 X199.195
G1 X210.489 Y42.774
G3 X214.167 Y40.198 I3.127 J0.551
G3 X215.204 Y40.575 I-0.551 J3.127
G1 X329.951 Y106.825
G1 X358.395
G1 X369.689 Y42.774
G3 X373.367 Y40.198 I3.127 J0.551
G3 X374.404 Y40.575 I-0.551 J3.127
G1 X489.151 Y106.825
G1 X564.5
G3 X567.675 Y110 I0 J3.175
G1 Y123.1
G3 X564.5 Y126.275 I-3.175 J0
G1 X536.165
G1 X524.165
G2 X523.165 Y127.275 I0 J1
G1 Y128.775
G1 Y128.992 Z-10.459
G1 Y129.207 Z-10.437
G1 Y129.421 Z-10.4
G1 Y129.632 Z-10.349
G1 Y129.838 Z-10.283
G1 Y130.04 Z-10.204
G1 Y130.236 Z-10.111
G1 Y130.425 Z-10.004
G1 Y130.606 Z-9.886
G1 Y130.779 Z-9.755
G1 Y130.942 Z-9.612
G1 Y131.095 Z-9.459
G1 Y131.238 Z-9.295
G1 Y131.369 Z-9.123
G1 Y131.488 Z-8.941
G1 Y131.594 Z-8.752
G1 Y131.687 Z-8.557
G1 Y131.767 Z-8.355
G1 Y131.832 Z-8.148
G1 Y131.884 Z-7.938
G1 Y131.92 Z-7.724
G1 Y131.943 Z-7.508
G1 Y131.95 Z-7.292
G1 X537.165
G1 Z-12.525 F600.
G1 Y131.943 Z-12.742
G1 Y131.92 Z-12.957
G1 Y131.884 Z-13.171
G1 Y131.832 Z-13.382
G1 Y131.767 Z-13.588
G1 Y131.687 Z-13.79
G1 Y131.594 Z-13.986
G1 Y131.488 Z-14.175
G1 Y131.369 Z-14.356
G1 Y131.238 Z-14.529
G1 Y131.095 Z-14.692
G1 Y130.942 Z-14.845
G1 Y130.779 Z-14.988
G1 Y130.606 Z-15.119
G1 Y130.425 Z-15.238
G1 Y130.236 Z-15.344
G1 Y130.04 Z-15.437
G1 Y129.838 Z-15.517
G1 Y129.632 Z-15.582
G1 Y129.421 Z-15.634
G1 Y129.207 Z-15.67
G1 Y128.992 Z-15.693
G1 Y128.775 Z-15.7
G1 Y127.275 F800.
G2 X536.165 Y126.275 I-1 J0
G1 X516.128
G1 Z-11.7
G1 X499.778
G1 Z-15.7 F600.
G1 X177.824 F800.
G1 Z-11.7
G1 X161.474
G1 Z-15.7 F600.
G1 X120 F800.
G3 X116.825 Y123.1 I0 J-3.175
G1 Y97.113
G1 Z-11.7
G1 Y80.763
G1 Z-15.7 F600.
G1 Y52.85 F800.
G3 X120 Y49.675 I3.175 J0
G3 X122.245 Y50.605 I0 J3.175
G1 X178.465 Y106.825
G1 X199.195
G1 X210.489 Y42.774
G3 X214.167 Y40.198 I3.127 J0.551
G3 X215.204 Y40.575 I-0.551 J3.127
G1 X329.951 Y106.825
G1 X358.395
G1 X369.689 Y42.774
G3 X373.367 Y40.198 I3.127 J0.551
G3 X374.404 Y40.575 I-0.551 J3.127
G1 X489.151 Y106.825
G1 X564.5
G3 X567.675 Y110 I0 J3.175
G1 Y123.1
G3 X564.5 Y126.275 I-3.175 J0
G1 X524.165
G2 X523.165 Y127.275 I0 J1
G1 Y128.775
G1 Y128.992 Z-15.693
G1 Y129.207 Z-15.67
G1 Y129.421 Z-15.634
G1 Y129.632 Z-15.582
G1 Y129.838 Z-15.517
G1 Y130.04 Z-15.437
G1 Y130.236 Z-15.344
G1 Y130.425 Z-15.238
G1 Y130.606 Z-15.119
G1 Y130.779 Z-14.988
G1 Y130.942 Z-14.845
G1 Y131.095 Z-14.692
G1 Y131.238 Z-14.529
G1 Y131.369 Z-14.356
G1 Y131.488 Z-14.175
G1 Y131.594 Z-13.986
G1 Y131.687 Z-13.79
G1 Y131.767 Z-13.588
G1 Y131.832 Z-13.382
G1 Y131.884 Z-13.171
G1 Y131.92 Z-12.957
G1 Y131.943 Z-12.742
G1 Y131.95 Z-12.525
G0 Z8

G0 Z8
M5
M30
