(MAILORGANIZER_SQUAREPARTS)
(BACK, SHELF, AND CUBBIE FACES FOR MY MAIL ORGANIZER. T1 = 14 SINGLE FLUTE FLAT MILL. DESIGNED FOR 12 PLYWOOD.)
(T1  D=6.35 CR=0 - ZMIN=-13.2 - FLAT END MILL)
G0 G40 G90 G17
G21

(2D CONTOUR1)
T1 M6
M3 S12000
G0 X-8.85 Y258.737
G0 Z8
G0 Z7
G1 Z-1.225 F600.
G1 X-8.843 Z-1.442
G1 X-8.82 Z-1.657
G1 X-8.784 Z-1.871
G1 X-8.732 Z-2.082
G1 X-8.667 Z-2.288
G1 X-8.587 Z-2.49
G1 X-8.494 Z-2.686
G1 X-8.388 Z-2.875
G1 X-8.269 Z-3.056
G1 X-8.138 Z-3.229
G1 X-7.995 Z-3.392
G1 X-7.842 Z-3.545
G1 X-7.679 Z-3.688
G1 X-7.506 Z-3.819
G1 X-7.325 Z-3.938
G1 X-7.136 Z-4.044
G1 X-6.94 Z-4.137
G1 X-6.738 Z-4.217
G1 X-6.532 Z-4.282
G1 X-6.321 Z-4.334
G1 X-6.107 Z-4.37
G1 X-5.892 Z-4.393
G1 X-5.675 Z-4.4
G1 X-4.175 F800.
G2 X-3.175 Y257.737 I0 J-1
G1 Y0
G3 X0 Y-3.175 I3.175 J0
G1 X444.5
G3 X447.675 Y0 I0 J3.175
G1 Y279.4
G3 X444.5 Y282.575 I-3.175 J0
G1 X0
G3 X-3.175 Y279.4 I0 J-3.175
G1 Y257.737
G1 Y245.737
G2 X-4.175 Y244.737 I-1 J0
G1 X-5.675
G1 X-5.892 Z-4.393
G1 X-6.107 Z-4.37
G1 X-6.321 Z-4.334
G1 X-6.532 Z-4.282
G1 X-6.738 Z-4.217
G1 X-6.94 Z-4.137
G1 X-7.136 Z-4.044
G1 X-7.325 Z-3.938
G1 X-7.506 Z-3.819
G1 X-7.679 Z-3.688
G1 X-7.842 Z-3.545
G1 X-7.995 Z-3.392
G1 X-8.138 Z-3.229
G1 X-8.269 Z-3.056
G1 X-8.388 Z-2.875
G1 X-8.494 Z-2.686
G1 X-8.587 Z-2.49
G1 X-8.667 Z-2.288
G1 X-8.732 Z-2.082
G1 X-8.784 Z-1.871
G1 X-8.82 Z-1.657
G1 X-8.843 Z-1.442
G1 X-8.85 Z-1.225
G1 Y258.737
G1 Z-5.625 F600.
G1 X-8.843 Z-5.842
G1 X-8.82 Z-6.057
G1 X-8.784 Z-6.271
G1 X-8.732 Z-6.482
G1 X-8.667 Z-6.688
G1 X-8.587 Z-6.89
G1 X-8.494 Z-7.086
G1 X-8.388 Z-7.275
G1 X-8.269 Z-7.456
G1 X-8.138 Z-7.629
G1 X-7.995 Z-7.792
G1 X-7.842 Z-7.945
G1 X-7.679 Z-8.088
G1 X-7.506 Z-8.219
G1 X-7.325 Z-8.338
G1 X-7.136 Z-8.444
G1 X-6.94 Z-8.537
G1 X-6.738 Z-8.617
G1 X-6.532 Z-8.682
G1 X-6.321 Z-8.734
G1 X-6.107 Z-8.77
G1 X-5.892 Z-8.793
G1 X-5.675 Z-8.8
G1 X-4.175 F800.
G2 X-3.175 Y257.737 I0 J-1
G1 Y0
G3 X0 Y-3.175 I3.175 J0
G1 X444.5
G3 X447.675 Y0 I0 J3.175
G1 Y279.4
G3 X444.5 Y282.575 I-3.175 J0
G1 X0
G3 X-3.175 Y279.4 I0 J-3.175
G1 Y257.737
G1 Y245.737
G2 X-4.175 Y244.737 I-1 J0
G1 X-5.675
G1 X-5.892 Z-8.793
G1 X-6.107 Z-8.77
G1 X-6.321 Z-8.734
G1 X-6.532 Z-8.682
G1 X-6.738 Z-8.617
G1 X-6.94 Z-8.537
G1 X-7.136 Z-8.444
G1 X-7.325 Z-8.338
G1 X-7.506 Z-8.219
G1 X-7.679 Z-8.088
G1 X-7.842 Z-7.945
G1 X-7.995 Z-7.792
G1 X-8.138 Z-7.629
G1 X-8.269 Z-7.456
G1 X-8.388 Z-7.275
G1 X-8.494 Z-7.086
G1 X-8.587 Z-6.89
G1 X-8.667 Z-6.688
G1 X-8.732 Z-6.482
G1 X-8.784 Z-6.271
G1 X-8.82 Z-6.057
G1 X-8.843 Z-5.842
G1 X-8.85 Z-5.625
G1 Y258.737
G1 Z-10.025 F600.
G1 X-8.843 Z-10.242
G1 X-8.82 Z-10.457
G1 X-8.784 Z-10.671
G1 X-8.732 Z-10.882
G1 X-8.667 Z-11.088
G1 X-8.587 Z-11.29
G1 X-8.494 Z-11.486
G1 X-8.388 Z-11.675
G1 X-8.269 Z-11.856
G1 X-8.138 Z-12.029
G1 X-7.995 Z-12.192
G1 X-7.842 Z-12.345
G1 X-7.679 Z-12.488
G1 X-7.506 Z-12.619
G1 X-7.325 Z-12.738
G1 X-7.136 Z-12.844
G1 X-6.94 Z-12.937
G1 X-6.738 Z-13.017
G1 X-6.532 Z-13.082
G1 X-6.321 Z-13.134
G1 X-6.107 Z-13.17
G1 X-5.892 Z-13.193
G1 X-5.675 Z-13.2
G1 X-4.175 F800.
G2 X-3.175 Y257.737 I0 J-1
G1 Y142.095
G1 Z-9.2
G1 Y125.745
G1 Z-13.2 F600.
G1 Y0 F800.
G3 X0 Y-3.175 I3.175 J0
G1 X213.847
G1 Z-9.2
G1 X230.197
G1 Z-13.2 F600.
G1 X444.5 F800.
G3 X447.675 Y0 I0 J3.175
G1 Y135.088
G1 Z-9.2
G1 Y151.438
G1 Z-13.2 F600.
G1 Y279.4 F800.
G3 X444.5 Y282.575 I-3.175 J0
G1 X237.815
G1 Z-9.2
G1 X221.465
G1 Z-13.2 F600.
G1 X0 F800.
G3 X-3.175 Y279.4 I0 J-3.175
G1 Y245.737
G2 X-4.175 Y244.737 I-1 J0
G1 X-5.675
G1 X-5.892 Z-13.193
G1 X-6.107 Z-13.17
G1 X-6.321 Z-13.134
G1 X-6.532 Z-13.082
G1 X-6.738 Z-13.017
G1 X-6.94 Z-12.937
G1 X-7.136 Z-12.844
G1 X-7.325 Z-12.738
G1 X-7.506 Z-12.619
G1 X-7.679 Z-12.488
G1 X-7.842 Z-12.345
G1 X-7.995 Z-12.192
G1 X-8.138 Z-12.029
G1 X-8.269 Z-11.856
G1 X-8.388 Z-11.675
G1 X-8.494 Z-11.486
G1 X-8.587 Z-11.29
G1 X-8.667 Z-11.088
G1 X-8.732 Z-10.882
G1 X-8.784 Z-10.671
G1 X-8.82 Z-10.457
G1 X-8.843 Z-10.242
G1 X-8.85 Z-10.025
G0 Z8

(2D CONTOUR2)
G0 X469.39 Y313.65
G0 Z8
G0 Z7
G1 Z-1.225 F600.
G1 Y313.643 Z-1.442
G1 Y313.62 Z-1.657
G1 Y313.584 Z-1.871
G1 Y313.532 Z-2.082
G1 Y313.467 Z-2.288
G1 Y313.387 Z-2.49
G1 Y313.294 Z-2.686
G1 Y313.188 Z-2.875
G1 Y313.069 Z-3.056
G1 Y312.938 Z-3.229
G1 Y312.795 Z-3.392
G1 Y312.642 Z-3.545
G1 Y312.479 Z-3.688
G1 Y312.306 Z-3.819
G1 Y312.125 Z-3.938
G1 Y311.936 Z-4.044
G1 Y311.74 Z-4.137
G1 Y311.538 Z-4.217
G1 Y311.332 Z-4.282
G1 Y311.121 Z-4.334
G1 Y310.907 Z-4.37
G1 Y310.692 Z-4.393
G1 Y310.475 Z-4.4
G1 Y308.975 F800.
G2 X468.39 Y307.975 I-1 J0
G1 X457.2
G3 X454.025 Y304.8 I0 J-3.175
G1 Y0
G3 X457.2 Y-3.175 I3.175 J0
G1 X546.1
G3 X549.275 Y0 I0 J3.175
G1 Y304.8
G3 X546.1 Y307.975 I-3.175 J0
G1 X468.39
G1 X457.2
G3 X456.399 Y307.872 I0 J-3.175
G2 X455.641 Y307.977 I-0.252 J0.968
G2 X455.179 Y308.588 I0.506 J0.863
G1 X454.8 Y310.039
G1 X454.746 Y310.249 Z-4.393
G1 X454.691 Y310.457 Z-4.37
G1 X454.637 Y310.664 Z-4.334
G1 X454.584 Y310.868 Z-4.282
G1 X454.532 Y311.068 Z-4.217
G1 X454.481 Y311.263 Z-4.137
G1 X454.432 Y311.452 Z-4.044
G1 X454.384 Y311.635 Z-3.938
G1 X454.338 Y311.811 Z-3.819
G1 X454.295 Y311.978 Z-3.688
G1 X454.253 Y312.136 Z-3.545
G1 X454.215 Y312.284 Z-3.392
G1 X454.179 Y312.422 Z-3.229
G1 X454.146 Y312.549 Z-3.056
G1 X454.116 Y312.664 Z-2.875
G1 X454.089 Y312.767 Z-2.686
G1 X454.065 Y312.857 Z-2.49
G1 X454.045 Y312.934 Z-2.288
G1 X454.029 Y312.997 Z-2.082
G1 X454.016 Y313.047 Z-1.871
G1 X454.006 Y313.083 Z-1.657
G1 X454.001 Y313.104 Z-1.442
G1 X453.999 Y313.111 Z-1.225
G1 X469.39 Y313.65
G1 Z-5.625 F600.
G1 Y313.643 Z-5.842
G1 Y313.62 Z-6.057
G1 Y313.584 Z-6.271
G1 Y313.532 Z-6.482
G1 Y313.467 Z-6.688
G1 Y313.387 Z-6.89
G1 Y313.294 Z-7.086
G1 Y313.188 Z-7.275
G1 Y313.069 Z-7.456
G1 Y312.938 Z-7.629
G1 Y312.795 Z-7.792
G1 Y312.642 Z-7.945
G1 Y312.479 Z-8.088
G1 Y312.306 Z-8.219
G1 Y312.125 Z-8.338
G1 Y311.936 Z-8.444
G1 Y311.74 Z-8.537
G1 Y311.538 Z-8.617
G1 Y311.332 Z-8.682
G1 Y311.121 Z-8.734
G1 Y310.907 Z-8.77
G1 Y310.692 Z-8.793
G1 Y310.475 Z-8.8
G1 Y308.975 F800.
G2 X468.39 Y307.975 I-1 J0
G1 X457.2
G3 X454.025 Y304.8 I0 J-3.175
G1 Y0
G3 X457.2 Y-3.175 I3.175 J0
G1 X546.1
G3 X549.275 Y0 I0 J3.175
G1 Y304.8
G3 X546.1 Y307.975 I-3.175 J0
G1 X468.39
G1 X457.2
G3 X456.399 Y307.872 I0 J-3.175
G2 X455.641 Y307.977 I-0.252 J0.968
G2 X455.179 Y308.588 I0.506 J0.863
G1 X454.8 Y310.039
G1 X454.746 Y310.249 Z-8.793
G1 X454.691 Y310.457 Z-8.77
G1 X454.637 Y310.664 Z-8.734
G1 X454.584 Y310.868 Z-8.682
G1 X454.532 Y311.068 Z-8.617
G1 X454.481 Y311.263 Z-8.537
G1 X454.432 Y311.452 Z-8.444
G1 X454.384 Y311.635 Z-8.338
G1 X454.338 Y311.811 Z-8.219
G1 X454.295 Y311.978 Z-8.088
G1 X454.253 Y312.136 Z-7.945
G1 X454.215 Y312.284 Z-7.792
G1 X454.179 Y312.422 Z-7.629
G1 X454.146 Y312.549 Z-7.456
G1 X454.116 Y312.664 Z-7.275
G1 X454.089 Y312.767 Z-7.086
G1 X454.065 Y312.857 Z-6.89
G1 X454.045 Y312.934 Z-6.688
G1 X454.029 Y312.997 Z-6.482
G1 X454.016 Y313.047 Z-6.271
G1 X454.006 Y313.083 Z-6.057
G1 X454.001 Y313.104 Z-5.842
G1 X453.999 Y313.111 Z-5.625
G1 X469.39 Y313.65
G1 Z-10.025 F600.
G1 Y313.643 Z-10.242
G1 Y313.62 Z-10.457
G1 Y313.584 Z-10.671
G1 Y313.532 Z-10.882
G1 Y313.467 Z-11.088
G1 Y313.387 Z-11.29
G1 Y313.294 Z-11.486
G1 Y313.188 Z-11.675
G1 Y313.069 Z-11.856
G1 Y312.938 Z-12.029
G1 Y312.795 Z-12.192
G1 Y312.642 Z-12.345
G1 Y312.479 Z-12.488
G1 Y312.306 Z-12.619
G1 Y312.125 Z-12.738
G1 Y311.936 Z-12.844
G1 Y311.74 Z-12.937
G1 Y311.538 Z-13.017
G1 Y311.332 Z-13.082
G1 Y311.121 Z-13.134
G1 Y310.907 Z-13.17
G1 Y310.692 Z-13.193
G1 Y310.475 Z-13.2
G1 Y308.975 F800.
G2 X468.39 Y307.975 I-1 J0
G1 X457.2
G3 X454.025 Y304.8 I0 J-3.175
G1 Y147.136
G1 Z-9.2
G1 Y130.786
G1 Z-13.2 F600.
G1 Y0 F800.
G3 X457.2 Y-3.175 I3.175 J0
G1 X495.168
G1 Z-9.2
G1 X511.518
G1 Z-13.2 F600.
G1 X546.1 F800.
G3 X549.275 Y0 I0 J3.175
G1 Y130.627
G1 Z-9.2
G1 Y146.977
G1 Z-13.2 F600.
G1 Y304.8 F800.
G3 X546.1 Y307.975 I-3.175 J0
G1 X507.27
G1 Z-9.2
G1 X490.92
G1 Z-13.2 F600.
G1 X457.2 F800.
G3 X456.399 Y307.872 I0 J-3.175
G2 X455.641 Y307.977 I-0.252 J0.968
G2 X455.179 Y308.588 I0.506 J0.863
G1 X454.8 Y310.039
G1 X454.746 Y310.249 Z-13.193
G1 X454.691 Y310.457 Z-13.17
G1 X454.637 Y310.664 Z-13.134
G1 X454.584 Y310.868 Z-13.082
G1 X454.532 Y311.068 Z-13.017
G1 X454.481 Y311.263 Z-12.937
G1 X454.432 Y311.452 Z-12.844
G1 X454.384 Y311.635 Z-12.738
G1 X454.338 Y311.811 Z-12.619
G1 X454.295 Y311.978 Z-12.488
G1 X454.253 Y312.136 Z-12.345
G1 X454.215 Y312.284 Z-12.192
G1 X454.179 Y312.422 Z-12.029
G1 X454.146 Y312.549 Z-11.856
G1 X454.116 Y312.664 Z-11.675
G1 X454.089 Y312.767 Z-11.486
G1 X454.065 Y312.857 Z-11.29
G1 X454.045 Y312.934 Z-11.088
G1 X454.029 Y312.997 Z-10.882
G1 X454.016 Y313.047 Z-10.671
G1 X454.006 Y313.083 Z-10.457
G1 X454.001 Y313.104 Z-10.242
G1 X453.999 Y313.111 Z-10.025
G0 Z8

(2D CONTOUR3)
G0 X573.486 Y313.65
G0 Z8
G0 Z7
G1 Z-1.225 F600.
G1 Y313.643 Z-1.442
G1 Y313.62 Z-1.657
G1 Y313.584 Z-1.871
G1 Y313.532 Z-2.082
G1 Y313.467 Z-2.288
G1 Y313.387 Z-2.49
G1 Y313.294 Z-2.686
G1 Y313.188 Z-2.875
G1 Y313.069 Z-3.056
G1 Y312.938 Z-3.229
G1 Y312.795 Z-3.392
G1 Y312.642 Z-3.545
G1 Y312.479 Z-3.688
G1 Y312.306 Z-3.819
G1 Y312.125 Z-3.938
G1 Y311.936 Z-4.044
G1 Y311.74 Z-4.137
G1 Y311.538 Z-4.217
G1 Y311.332 Z-4.282
G1 Y311.121 Z-4.334
G1 Y310.907 Z-4.37
G1 Y310.692 Z-4.393
G1 Y310.475 Z-4.4
G1 Y308.975 F800.
G2 X572.486 Y307.975 I-1 J0
G1 X558.8
G3 X555.625 Y304.8 I0 J-3.175
G1 Y0
G3 X558.8 Y-3.175 I3.175 J0
G1 X692.15
G3 X695.325 Y0 I0 J3.175
G1 Y304.8
G3 X692.15 Y307.975 I-3.175 J0
G1 X572.486
G1 X560.486
G2 X559.486 Y308.975 I0 J1
G1 Y310.475
G1 Y310.692 Z-4.393
G1 Y310.907 Z-4.37
G1 Y311.121 Z-4.334
G1 Y311.332 Z-4.282
G1 Y311.538 Z-4.217
G1 Y311.74 Z-4.137
G1 Y311.936 Z-4.044
G1 Y312.125 Z-3.938
G1 Y312.306 Z-3.819
G1 Y312.479 Z-3.688
G1 Y312.642 Z-3.545
G1 Y312.795 Z-3.392
G1 Y312.938 Z-3.229
G1 Y313.069 Z-3.056
G1 Y313.188 Z-2.875
G1 Y313.294 Z-2.686
G1 Y313.387 Z-2.49
G1 Y313.467 Z-2.288
G1 Y313.532 Z-2.082
G1 Y313.584 Z-1.871
G1 Y313.62 Z-1.657
G1 Y313.643 Z-1.442
G1 Y313.65 Z-1.225
G1 X573.486
G1 Z-5.625 F600.
G1 Y313.643 Z-5.842
G1 Y313.62 Z-6.057
G1 Y313.584 Z-6.271
G1 Y313.532 Z-6.482
G1 Y313.467 Z-6.688
G1 Y313.387 Z-6.89
G1 Y313.294 Z-7.086
G1 Y313.188 Z-7.275
G1 Y313.069 Z-7.456
G1 Y312.938 Z-7.629
G1 Y312.795 Z-7.792
G1 Y312.642 Z-7.945
G1 Y312.479 Z-8.088
G1 Y312.306 Z-8.219
G1 Y312.125 Z-8.338
G1 Y311.936 Z-8.444
G1 Y311.74 Z-8.537
G1 Y311.538 Z-8.617
G1 Y311.332 Z-8.682
G1 Y311.121 Z-8.734
G1 Y310.907 Z-8.77
G1 Y310.692 Z-8.793
G1 Y310.475 Z-8.8
G1 Y308.975 F800.
G2 X572.486 Y307.975 I-1 J0
G1 X558.8
G3 X555.625 Y304.8 I0 J-3.175
G1 Y0
G3 X558.8 Y-3.175 I3.175 J0
G1 X692.15
G3 X695.325 Y0 I0 J3.175
G1 Y304.8
G3 X692.15 Y307.975 I-3.175 J0
G1 X572.486
G1 X560.486
G2 X559.486 Y308.975 I0 J1
G1 Y310.475
G1 Y310.692 Z-8.793
G1 Y310.907 Z-8.77
G1 Y311.121 Z-8.734
G1 Y311.332 Z-8.682
G1 Y311.538 Z-8.617
G1 Y311.74 Z-8.537
G1 Y311.936 Z-8.444
G1 Y312.125 Z-8.338
G1 Y312.306 Z-8.219
G1 Y312.479 Z-8.088
G1 Y312.642 Z-7.945
G1 Y312.795 Z-7.792
G1 Y312.938 Z-7.629
G1 Y313.069 Z-7.456
G1 Y313.188 Z-7.275
G1 Y313.294 Z-7.086
G1 Y313.387 Z-6.89
G1 Y313.467 Z-6.688
G1 Y313.532 Z-6.482
G1 Y313.584 Z-6.271
G1 Y313.62 Z-6.057
G1 Y313.643 Z-5.842
G1 Y313.65 Z-5.625
G1 X573.486
G1 Z-10.025 F600.
G1 Y313.643 Z-10.242
G1 Y313.62 Z-10.457
G1 Y313.584 Z-10.671
G1 Y313.532 Z-10.882
G1 Y313.467 Z-11.088
G1 Y313.387 Z-11.29
G1 Y313.294 Z-11.486
G1 Y313.188 Z-11.675
G1 Y313.069 Z-11.856
G1 Y312.938 Z-12.029
G1 Y312.795 Z-12.192
G1 Y312.642 Z-12.345
G1 Y312.479 Z-12.488
G1 Y312.306 Z-12.619
G1 Y312.125 Z-12.738
G1 Y311.936 Z-12.844
G1 Y311.74 Z-12.937
G1 Y311.538 Z-13.017
G1 Y311.332 Z-13.082
G1 Y311.121 Z-13.134
G1 Y310.907 Z-13.17
G1 Y310.692 Z-13.193
G1 Y310.475 Z-13.2
G1 Y308.975 F800.
G2 X572.486 Y307.975 I-1 J0
G1 X558.8
G3 X555.625 Y304.8 I0 J-3.175
G1 Y138.669
G1 Z-9.2
G1 Y122.319
G1 Z-13.2 F600.
G1 Y0 F800.
G3 X558.8 Y-3.175 I3.175 J0
G1 X612.027
G1 Z-9.2
G1 X628.377
G1 Z-13.2 F600.
G1 X692.15 F800.
G3 X695.325 Y0 I0 J3.175
G1 Y119.762
G1 Z-9.2
G1 Y136.112
G1 Z-13.2 F600.
G1 Y304.8 F800.
G3 X692.15 Y307.975 I-3.175 J0
G1 X560.486
G2 X559.486 Y308.975 I0 J1
G1 Y310.475
G1 Y310.692 Z-13.193
G1 Y310.907 Z-13.17
G1 Y311.121 Z-13.134
G1 Y311.332 Z-13.082
G1 Y311.538 Z-13.017
G1 Y311.74 Z-12.937
G1 Y311.936 Z-12.844
G1 Y312.125 Z-12.738
G1 Y312.306 Z-12.619
G1 Y312.479 Z-12.488
G1 Y312.642 Z-12.345
G1 Y312.795 Z-12.192
G1 Y312.938 Z-12.029
G1 Y313.069 Z-11.856
G1 Y313.188 Z-11.675
G1 Y313.294 Z-11.486
G1 Y313.387 Z-11.29
G1 Y313.467 Z-11.088
G1 Y313.532 Z-10.882
G1 Y313.584 Z-10.671
G1 Y313.62 Z-10.457
G1 Y313.643 Z-10.242
G1 Y313.65 Z-10.025
G0 Z8

(2D CONTOUR4)
G0 X716.862 Y313.65
G0 Z8
G0 Z7
G1 Z-1.225 F600.
G1 Y313.643 Z-1.442
G1 Y313.62 Z-1.657
G1 Y313.584 Z-1.871
G1 Y313.532 Z-2.082
G1 Y313.467 Z-2.288
G1 Y313.387 Z-2.49
G1 Y313.294 Z-2.686
G1 Y313.188 Z-2.875
G1 Y313.069 Z-3.056
G1 Y312.938 Z-3.229
G1 Y312.795 Z-3.392
G1 Y312.642 Z-3.545
G1 Y312.479 Z-3.688
G1 Y312.306 Z-3.819
G1 Y312.125 Z-3.938
G1 Y311.936 Z-4.044
G1 Y311.74 Z-4.137
G1 Y311.538 Z-4.217
G1 Y311.332 Z-4.282
G1 Y311.121 Z-4.334
G1 Y310.907 Z-4.37
G1 Y310.692 Z-4.393
G1 Y310.475 Z-4.4
G1 Y308.975 F800.
G2 X715.862 Y307.975 I-1 J0
G1 X704.85
G3 X701.675 Y304.8 I0 J-3.175
G1 Y0
G3 X704.85 Y-3.175 I3.175 J0
G1 X838.2
G3 X841.375 Y0 I0 J3.175
G1 Y304.8
G3 X838.2 Y307.975 I-3.175 J0
G1 X715.862
G1 X704.85
G3 X703.878 Y307.823 I0 J-3.175
G2 X703.115 Y307.885 I-0.306 J0.952
G2 X702.62 Y308.468 I0.457 J0.89
G1 X702.16 Y309.896
G1 X702.094 Y310.103 Z-4.393
G1 X702.028 Y310.308 Z-4.37
G1 X701.963 Y310.511 Z-4.334
G1 X701.898 Y310.712 Z-4.282
G1 X701.835 Y310.908 Z-4.217
G1 X701.773 Y311.1 Z-4.137
G1 X701.713 Y311.287 Z-4.044
G1 X701.655 Y311.467 Z-3.938
G1 X701.6 Y311.639 Z-3.819
G1 X701.547 Y311.804 Z-3.688
G1 X701.497 Y311.959 Z-3.545
G1 X701.45 Y312.105 Z-3.392
G1 X701.406 Y312.241 Z-3.229
G1 X701.366 Y312.366 Z-3.056
G1 X701.33 Y312.479 Z-2.875
G1 X701.297 Y312.58 Z-2.686
G1 X701.269 Y312.669 Z-2.49
G1 X701.244 Y312.744 Z-2.288
G1 X701.224 Y312.807 Z-2.082
G1 X701.209 Y312.856 Z-1.871
G1 X701.197 Y312.891 Z-1.657
G1 X701.191 Y312.912 Z-1.442
G1 X701.188 Y312.919 Z-1.225
G1 X716.862 Y313.65
G1 Z-5.625 F600.
G1 Y313.643 Z-5.842
G1 Y313.62 Z-6.057
G1 Y313.584 Z-6.271
G1 Y313.532 Z-6.482
G1 Y313.467 Z-6.688
G1 Y313.387 Z-6.89
G1 Y313.294 Z-7.086
G1 Y313.188 Z-7.275
G1 Y313.069 Z-7.456
G1 Y312.938 Z-7.629
G1 Y312.795 Z-7.792
G1 Y312.642 Z-7.945
G1 Y312.479 Z-8.088
G1 Y312.306 Z-8.219
G1 Y312.125 Z-8.338
G1 Y311.936 Z-8.444
G1 Y311.74 Z-8.537
G1 Y311.538 Z-8.617
G1 Y311.332 Z-8.682
G1 Y311.121 Z-8.734
G1 Y310.907 Z-8.77
G1 Y310.692 Z-8.793
G1 Y310.475 Z-8.8
G1 Y308.975 F800.
G2 X715.862 Y307.975 I-1 J0
G1 X704.85
G3 X701.675 Y304.8 I0 J-3.175
G1 Y0
G3 X704.85 Y-3.175 I3.175 J0
G1 X838.2
G3 X841.375 Y0 I0 J3.175
G1 Y304.8
G3 X838.2 Y307.975 I-3.175 J0
G1 X715.862
G1 X704.85
G3 X703.878 Y307.823 I0 J-3.175
G2 X703.115 Y307.885 I-0.306 J0.952
G2 X702.62 Y308.468 I0.457 J0.89
G1 X702.16 Y309.896
G1 X702.094 Y310.103 Z-8.793
G1 X702.028 Y310.308 Z-8.77
G1 X701.963 Y310.511 Z-8.734
G1 X701.898 Y310.712 Z-8.682
G1 X701.835 Y310.908 Z-8.617
G1 X701.773 Y311.1 Z-8.537
G1 X701.713 Y311.287 Z-8.444
G1 X701.655 Y311.467 Z-8.338
G1 X701.6 Y311.639 Z-8.219
G1 X701.547 Y311.804 Z-8.088
G1 X701.497 Y311.959 Z-7.945
G1 X701.45 Y312.105 Z-7.792
G1 X701.406 Y312.241 Z-7.629
G1 X701.366 Y312.366 Z-7.456
G1 X701.33 Y312.479 Z-7.275
G1 X701.297 Y312.58 Z-7.086
G1 X701.269 Y312.669 Z-6.89
G1 X701.244 Y312.744 Z-6.688
G1 X701.224 Y312.807 Z-6.482
G1 X701.209 Y312.856 Z-6.271
G1 X701.197 Y312.891 Z-6.057
G1 X701.191 Y312.912 Z-5.842
G1 X701.188 Y312.919 Z-5.625
G1 X716.862 Y313.65
G1 Z-10.025 F600.
G1 Y313.643 Z-10.242
G1 Y313.62 Z-10.457
G1 Y313.584 Z-10.671
G1 Y313.532 Z-10.882
G1 Y313.467 Z-11.088
G1 Y313.387 Z-11.29
G1 Y313.294 Z-11.486
G1 Y313.188 Z-11.675
G1 Y313.069 Z-11.856
G1 Y312.938 Z-12.029
G1 Y312.795 Z-12.192
G1 Y312.642 Z-12.345
G1 Y312.479 Z-12.488
G1 Y312.306 Z-12.619
G1 Y312.125 Z-12.738
G1 Y311.936 Z-12.844
G1 Y311.74 Z-12.937
G1 Y311.538 Z-13.017
G1 Y311.332 Z-13.082
G1 Y311.121 Z-13.134
G1 Y310.907 Z-13.17
G1 Y310.692 Z-13.193
G1 Y310.475 Z-13.2
G1 Y308.975 F800.
G2 X715.862 Y307.975 I-1 J0
G1 X704.85
G3 X701.675 Y304.8 I0 J-3.175
G1 Y136.433
G1 Z-9.2
G1 Y120.083
G1 Z-13.2 F600.
G1 Y0 F800.
G3 X704.85 Y-3.175 I3.175 J0
G1 X761.603
G1 Z-9.2
G1 X777.953
G1 Z-13.2 F600.
G1 X838.2 F800.
G3 X841.375 Y0 I0 J3.175
G1 Y101.925
G1 Z-9.2
G1 Y118.275
G1 Z-13.2 F600.
G1 Y304.8 F800.
G3 X838.2 Y307.975 I-3.175 J0
G1 X779.401
G1 Z-9.2
G1 X763.051
G1 Z-13.2 F600.
G1 X704.85 F800.
G3 X703.878 Y307.823 I0 J-3.175
G2 X703.115 Y307.885 I-0.306 J0.952
G2 X702.62 Y308.468 I0.457 J0.89
G1 X702.16 Y309.896
G1 X702.094 Y310.103 Z-13.193
G1 X702.028 Y310.308 Z-13.17
G1 X701.963 Y310.511 Z-13.134
G1 X701.898 Y310.712 Z-13.082
G1 X701.835 Y310.908 Z-13.017
G1 X701.773 Y311.1 Z-12.937
G1 X701.713 Y311.287 Z-12.844
G1 X701.655 Y311.467 Z-12.738
G1 X701.6 Y311.639 Z-12.619
G1 X701.547 Y311.804 Z-12.488
G1 X701.497 Y311.959 Z-12.345
G1 X701.45 Y312.105 Z-12.192
G1 X701.406 Y312.241 Z-12.029
G1 X701.366 Y312.366 Z-11.856
G1 X701.33 Y312.479 Z-11.675
G1 X701.297 Y312.58 Z-11.486
G1 X701.269 Y312.669 Z-11.29
G1 X701.244 Y312.744 Z-11.088
G1 X701.224 Y312.807 Z-10.882
G1 X701.209 Y312.856 Z-10.671
G1 X701.197 Y312.891 Z-10.457
G1 X701.191 Y312.912 Z-10.242
G1 X701.188 Y312.919 Z-10.025
G0 Z8

G0 Z8
M5
M30
